X: 03072
T: RAFFY'S REEL
C: Bob McQuillen 26 Feb 78
B: Bob's Note Book 03 #72
R: reel
%D:1978
Z: 2020 John Chambers <jc:trillian.mit.edu>
M: C
L: 1/8
K: G
DE \
| G2GA GDGB | dgeg d2Bd | e2d2 cBAG | FAde dcBA |\
| G2GA GDGB | dgeg d2Bd | egfe fgaf | g2G2 G2 :|
|: ga \
| b2g2 a3f | g2e2 d2Bd | edcB cBAG | AGFE D2ga |\
| b2g2 a3f | g2e2 d2Bd | e2fg a2f2 | g6 :|
%%begintext align
%% With love always to Raffy Haddock
%% who is one of the great joys of my life.
%%endtext

%%sep 1 1 500

%%sep 1 1 500

